!!!COM: Mozart
!!!OTL: Zwolf Variationen in Es, uber die Romanze 'Je suis Lindor' aus der Komodie 'Le Barbier de Seville'
!!!Variation: Variation 12 c2
**function	**harm	**kern	**kern
*	*	*clefF4	*clefG2
*	*	*k[b-e-a-]	*k[b-e-a-]
*M3/4	*M3/4	*M3/4	*M3/4
*E-:	*E-:	*E-:	*E-:
=287	=287	=287	=287
*	*	*	*^
2D	2V	8BBB-	4b-	4r
.	.	8BB-	.	.
.	.	8DD	4.d 4.f	2B-
.	.	8BB-	.	.
4D	4V7	8BBB-	.	.
.	.	8BB-	8f 8a-	.
=288	=288	=288	=288	=288
2.D	2.I	8EE-	(8f 8a-	4B-
.	.	8BB-	8e-) 8g	.
.	.	8GG	4.e- 4.g	4B-
.	.	8BB-	.	.
.	.	8EE-	.	4r
.	.	8BB-	8bb-	.
=289	=289	=289	=289	=289
2D	2V	8BBB-	8bb-	4b-
.	.	8BB-	8dd 8ff	.
.	.	8DD	4.dd 4.ff	2b-
.	.	8BB-	.	.
4D	4V7	8BBB-	.	.
.	.	8BB-	8ff 8aa-	.
=290	=290	=290	=290	=290
2.D	2.I	8EE-	8ff 8aa-	4b-
.	.	8BB-	8ee- 8gg	.
.	.	8GG	4.ee- 4.gg	4b-
.	.	8BB-	.	.
.	.	8EE-	.	4r
.	.	8BB-	8b-	.
=291	=291	=291	=291	=291
2.D	2.V7	4BBB- 4BB-	(8ee-L	4f 4a-
.	.	.	8ddJ)	.
.	.	4BB- 4B-	4dd	4f 4a-
.	.	4r	(8ccL	4r
.	.	.	8b-J)	.
=292	=292	=292	=292	=292
2.D	2.V7d	4AAA- 4AA-	(8ee-L	4f 4b-
.	.	.	8ddJ)	.
.	.	4AA- 4A-	4dd	4f 4b-
.	.	4r	4r	4r
*	*	*	*v	*v
=293	=293	=293	=293
2T	2Ib	4G 4e-	(8ee-L
.	.	.	8ddJ
.	.	4r	8ee-L)
.	.	.	8b'J
4P	4IV	4A- 4e-	(8ccL
.	.	.	8a-J)
=294	=294	=294	=294
2D	2Cc	4B- 4e-	(8gL
.	.	.	8b-J
.	.	4r	8e-L)
.	.	.	8g'J
4D	4V7	4BB- 4F 4A-	(8fL
.	.	.	8dJ)
=295	=295	=295	=295
2.T	2.I	4E- 4G	(8e-L
.	.	.	8gJ)
.	.	4r	8b-'L
.	.	.	8ee-'J
.	.	4r	8gg'L
.	.	.	8bb-'J
*-	*-	*-	*-
